svg/music_accidental_flat.svg

<svg xmlns="http://www.w3.org/2000/svg" viewBox="0 0 24 24"><path d="M8.5 19c4.86-2.74 7-5.09 7-7 0-1.41-.71-3-3-3-.7 0-1.39.28-2 .67V5h-2m2 10.38v-3.12c.62-.67 1.45-1.26 2-1.26.59 0 1 .07 1 1 0 .15-.1 1.3-3 3.38"/></svg>

<?xml version="1.0" encoding="UTF-8"?><!DOCTYPE svg PUBLIC "-//W3C//DTD SVG 1.1//EN" "http://www.w3.org/Graphics/SVG/1.1/DTD/svg11.dtd"><svg xmlns="http://www.w3.org/2000/svg" xmlns:xlink="http://www.w3.org/1999/xlink" version="1.1" id="mdi-music-accidental-flat" width="24" height="24" viewBox="0 0 24 24"><path d="M8.5 19C13.36 16.26 15.5 13.91 15.5 12C15.5 10.59 14.79 9 12.5 9C11.8 9 11.11 9.28 10.5 9.67V5H8.5M10.5 15.38V12.26C11.12 11.59 11.95 11 12.5 11C13.09 11 13.5 11.07 13.5 12C13.5 12.15 13.4 13.3 10.5 15.38Z" /></svg>
